X:267
T:Wilkes’s Wriggle. RH.267
T:De’ils Away With The Exiseman,aka. RH.267
T:Over The Water To Charlie, aka, RH.267
R:jig
S:Rev.R.Harrison’s MS,c1815,Cumbria
N:a.k.a.Bean Setting,Brackley,William & Nancy (Bledington),
N:Bumpus O’Stretton (Ilmington). Abraham Brown (Bidford).
N:Billy Boy (Bledington)..Morris tune.
O:England
A:Temple Sowerby,Cumbria
Z:vmp.Simon Wilson. Review PJH, 2008.
M:6/8
L:1/8
Q:3/8=120
K:D
A|A>Bc E2c|d2c B2A|A>Bc E2E|F3 A2:|!
|:E|A2c e2g|f2d c2B|A2c e2c|d3 e2g|!
f2d B>cd|e2c B2A|A>Bc E2E|F3 A2:|

